src/assets/images/reference/widgets/scada/traditional-fluid-system/symbol-water-stop.svg

<svg xmlns="http://www.w3.org/2000/svg" xmlns:tb="https://thingsboard.io/svg" width="200" height="200" fill="none" version="1.1" viewBox="0 0 200 200">
<path d="M14 64H186V136H14V64Z" fill="#fff" tb:tag="pipe-color"/><path d="M14 64H186V136H14V64Z" fill="url(#paint0_linear_2089_217683)"/><path d="m15.5 65.5h169v69h-169v-69z" stroke="#000" stroke-opacity=".12" stroke-width="3"/><rect x="187.5" y="51.5" width="11" height="97" rx="5.5" fill="#D9D9D9" stroke="#727171" stroke-width="3"/><rect x="1.5" y="51.5" width="11" height="97" rx="5.5" fill="#D9D9D9" stroke="#727171" stroke-width="3"/><path d="m70.5 46c0 1.933 1.567 3.5 3.5 3.5l52 1e-4c1.933 0 3.5-1.567 3.5-3.5v-37c0-4.6944-3.806-8.5-8.5-8.5h-42c-4.6944 0-8.5 3.8056-8.5 8.5v37z" fill="#1C943E" tb:tag="walve"/><path d="m70.5 46c0 1.933 1.567 3.5 3.5 3.5l52 1e-4c1.933 0 3.5-1.567 3.5-3.5v-37c0-4.6944-3.806-8.5-8.5-8.5h-42c-4.6944 0-8.5 3.8056-8.5 8.5v37z" fill="url(#paint1_linear_2089_217683)"/><path d="m70.5 46c0 1.933 1.567 3.5 3.5 3.5l52 1e-4c1.933 0 3.5-1.567 3.5-3.5v-37c0-4.6944-3.806-8.5-8.5-8.5h-42c-4.6944 0-8.5 3.8056-8.5 8.5v37z" stroke="#fff"/><path d="m110 136v-72h-21v72h21z" fill="#1C943E" tb:tag="walve"/><path d="m110 136v-72h-21v72h21z" fill="url(#paint2_linear_2089_217683)"/><path d="m110 136v-72h-21v72h21z" fill="url(#paint3_linear_2089_217683)"/><path d="m109.5 135.5v-71h-20v71h20z" stroke="#000" stroke-opacity=".12"/><path d="m126 64c2.209 0 4-1.7908 4-3.9999v-6c0-2.2092-1.791-4.0001-4-4.0001h-52c-2.2091 0-4 1.7909-4 4v6c0 2.2091 1.7909 4 4 4h52z" fill="#647484"/><path d="m126 64c2.209 0 4-1.7908 4-3.9999v-6c0-2.2092-1.791-4.0001-4-4.0001h-52c-2.2091 0-4 1.7909-4 4v6c0 2.2091 1.7909 4 4 4h52z" fill="url(#paint4_linear_2089_217683)"/><path d="m126 62.5c1.381 0 2.5-1.1193 2.5-2.5v-6c0-1.3807-1.119-2.5-2.5-2.5h-52c-1.3807 0-2.5 1.1193-2.5 2.5v6c0 1.3807 1.1193 2.5 2.5 2.5h52z" stroke="#000" stroke-opacity=".12" stroke-width="3"/><path d="m67.262 0s-67.262 0-67.262 33.5v164.18c0 1.3256 1.7909 2.3202 4 2.3202h192c2.209 0 4-0.9946 4-2.3202v-164.18c0-33.5-66.07-33.5-66.07-33.5h-33.93zm67.07 40.6c-1.2887 0-2.3332 0.6268-2.3332 1.4v150.2c0 0.7732 1.0447 1.4 2.3332 1.4h14.667c1.2887 0 2.3332-0.6268 2.3332-1.4v-150.2c0-0.7732-1.0447-1.4-2.3332-1.4z" fill="#000" fill-opacity="0" tb:tag="clickArea"/><defs>
  <linearGradient id="paint0_linear_2089_217683" x1="58.72" x2="58.53" y1="64" y2="136" gradientUnits="userSpaceOnUse">
   <stop stop-color="#727171" offset="0"/>
   <stop stop-color="#727171" stop-opacity=".35" offset=".26388"/>
   <stop stop-color="#727171" stop-opacity=".1" offset=".41759"/>
   <stop stop-color="#fff" stop-opacity="0" offset=".49829"/>
   <stop stop-color="#727171" stop-opacity=".1" offset=".58094"/>
   <stop stop-color="#727171" stop-opacity=".35" offset=".71855"/>
   <stop stop-color="#727171" offset="1"/>
  </linearGradient>
  <linearGradient id="paint1_linear_2089_217683" x1="134.3" x2="65.705" y1="8.0405" y2="9.0306" gradientUnits="userSpaceOnUse">
   <stop stop-color="#020202" stop-opacity=".35" offset="0"/>
   <stop stop-color="#020202" stop-opacity=".12" offset=".14093"/>
   <stop stop-color="#fff" stop-opacity=".12" offset=".39937"/>
   <stop stop-color="#fff" stop-opacity=".3" offset=".49829"/>
   <stop stop-color="#fff" stop-opacity=".12" offset=".59721"/>
   <stop stop-color="#020202" stop-opacity=".12" offset=".85946"/>
   <stop stop-color="#020202" stop-opacity=".35" offset="1"/>
  </linearGradient>
  <linearGradient id="paint2_linear_2089_217683" x1="99.475" x2="100.06" y1="64" y2="134.92" gradientUnits="userSpaceOnUse">
   <stop stop-color="#020202" stop-opacity=".35" offset="0"/>
   <stop stop-color="#020202" stop-opacity=".15" offset=".15823"/>
   <stop stop-color="#fff" stop-opacity=".12" offset=".28193"/>
   <stop stop-color="#fff" stop-opacity=".2" offset=".50291"/>
   <stop stop-color="#fff" stop-opacity=".12" offset=".72128"/>
   <stop stop-color="#020202" stop-opacity=".15" offset=".8423"/>
   <stop stop-color="#020202" stop-opacity=".35" offset=".99341"/>
  </linearGradient>
  <linearGradient id="paint3_linear_2089_217683" x1="110" x2="89" y1="100" y2="100" gradientUnits="userSpaceOnUse">
   <stop stop-color="#020202" stop-opacity=".2" offset=".01"/>
   <stop stop-color="#020202" stop-opacity=".12" offset=".05"/>
   <stop stop-color="#fff" stop-opacity=".12" offset=".15343"/>
   <stop stop-color="#fff" stop-opacity=".2" offset=".5"/>
   <stop stop-color="#fff" stop-opacity=".12" offset=".85"/>
   <stop stop-opacity=".12" offset=".95"/>
   <stop stop-opacity=".2" offset="1"/>
  </linearGradient>
  <linearGradient id="paint4_linear_2089_217683" x1="72.287" x2="127.11" y1="55.78" y2="57.142" gradientUnits="userSpaceOnUse">
   <stop stop-color="#020202" stop-opacity=".2" offset="0"/>
   <stop stop-color="#020202" stop-opacity=".18" offset=".090959"/>
   <stop stop-color="#020202" stop-opacity=".1" offset=".1"/>
   <stop stop-color="#020202" stop-opacity=".08" offset=".20513"/>
   <stop stop-color="#020202" stop-opacity=".05" offset=".21555"/>
   <stop stop-color="#020202" stop-opacity=".02" offset=".36962"/>
   <stop stop-color="#fff" stop-opacity=".01" offset=".37768"/>
   <stop stop-color="#fff" stop-opacity=".01" offset=".62413"/>
   <stop stop-color="#020202" stop-opacity=".02" offset=".6313"/>
   <stop stop-color="#020202" stop-opacity=".05" offset=".77601"/>
   <stop stop-color="#020202" stop-opacity=".08" offset=".7898"/>
   <stop stop-color="#020202" stop-opacity=".1" offset=".9"/>
   <stop stop-color="#020202" stop-opacity=".18" offset=".90846"/>
   <stop stop-color="#020202" stop-opacity=".2" offset="1"/>
  </linearGradient>
 </defs>
</svg>

<svg width="200" height="149" viewBox="0 0 200 149" fill="none" xmlns="http://www.w3.org/2000/svg">
<g clip-path="url(#clip0_19145_190570)">
<path d="M14 64H186V136H14V64Z" fill="white"/>
<path d="M14 64H186V136H14V64Z" fill="url(#paint0_linear_19145_190570)"/>
<path d="M15.5 65.5H184.5V134.5H15.5V65.5Z" stroke="black" stroke-opacity="0.12" stroke-width="3"/>
<path d="M198.5 57C198.5 53.9624 196.038 51.5 193 51.5C189.962 51.5 187.5 53.9624 187.5 57V143C187.5 146.038 189.962 148.5 193 148.5C196.038 148.5 198.5 146.038 198.5 143V57Z" fill="#D9D9D9" stroke="#727171" stroke-width="3"/>
<path d="M12.5 57C12.5 53.9624 10.0376 51.5 7 51.5C3.96243 51.5 1.5 53.9624 1.5 57V143C1.5 146.038 3.96243 148.5 7 148.5C10.0376 148.5 12.5 146.038 12.5 143V57Z" fill="#D9D9D9" stroke="#727171" stroke-width="3"/>
<path d="M70.5 45.9999C70.5 47.9329 72.067 49.4999 74 49.4999L126 49.5C127.933 49.5 129.5 47.933 129.5 46V9C129.5 4.3056 125.694 0.5 121 0.5H79C74.3056 0.5 70.5 4.3056 70.5 9V45.9999Z" fill="#1C943E"/>
<path d="M70.5 45.9999C70.5 47.9329 72.067 49.4999 74 49.4999L126 49.5C127.933 49.5 129.5 47.933 129.5 46V9C129.5 4.3056 125.694 0.5 121 0.5H79C74.3056 0.5 70.5 4.3056 70.5 9V45.9999Z" fill="url(#paint1_linear_19145_190570)"/>
<path d="M70.5 45.9999C70.5 47.9329 72.067 49.4999 74 49.4999L126 49.5C127.933 49.5 129.5 47.933 129.5 46V9C129.5 4.3056 125.694 0.5 121 0.5H79C74.3056 0.5 70.5 4.3056 70.5 9V45.9999Z" stroke="white"/>
<path d="M110 136V64H89V136H110Z" fill="#1C943E"/>
<path d="M110 136V64H89V136H110Z" fill="url(#paint2_linear_19145_190570)"/>
<path d="M110 136V64H89V136H110Z" fill="url(#paint3_linear_19145_190570)"/>
<path d="M109.5 135.5V64.5H89.5V135.5H109.5Z" stroke="black" stroke-opacity="0.12"/>
<path d="M126 64C128.209 64 130 62.2092 130 60.0001V54.0001C130 51.7909 128.209 50 126 50H74C71.7909 50 70 51.7909 70 54V60C70 62.2091 71.7909 64 74 64H126Z" fill="#647484"/>
<path d="M126 64C128.209 64 130 62.2092 130 60.0001V54.0001C130 51.7909 128.209 50 126 50H74C71.7909 50 70 51.7909 70 54V60C70 62.2091 71.7909 64 74 64H126Z" fill="url(#paint4_linear_19145_190570)"/>
<path d="M126 62.5C127.381 62.5 128.5 61.3807 128.5 60V54C128.5 52.6193 127.381 51.5 126 51.5H74C72.6193 51.5 71.5 52.6193 71.5 54V60C71.5 61.3807 72.6193 62.5 74 62.5H126Z" stroke="black" stroke-opacity="0.12" stroke-width="3"/>
</g>
<defs>
<linearGradient id="paint0_linear_19145_190570" x1="58.72" y1="64" x2="58.53" y2="136" gradientUnits="userSpaceOnUse">
<stop stop-color="#727171"/>
<stop offset="0.26388" stop-color="#727171" stop-opacity="0.35"/>
<stop offset="0.41759" stop-color="#727171" stop-opacity="0.1"/>
<stop offset="0.49829" stop-color="white" stop-opacity="0"/>
<stop offset="0.58094" stop-color="#727171" stop-opacity="0.1"/>
<stop offset="0.71855" stop-color="#727171" stop-opacity="0.35"/>
<stop offset="1" stop-color="#727171"/>
</linearGradient>
<linearGradient id="paint1_linear_19145_190570" x1="134.3" y1="8.0404" x2="65.705" y2="9.0305" gradientUnits="userSpaceOnUse">
<stop stop-color="#020202" stop-opacity="0.35"/>
<stop offset="0.14093" stop-color="#020202" stop-opacity="0.12"/>
<stop offset="0.39937" stop-color="white" stop-opacity="0.12"/>
<stop offset="0.49829" stop-color="white" stop-opacity="0.3"/>
<stop offset="0.59721" stop-color="white" stop-opacity="0.12"/>
<stop offset="0.85946" stop-color="#020202" stop-opacity="0.12"/>
<stop offset="1" stop-color="#020202" stop-opacity="0.35"/>
</linearGradient>
<linearGradient id="paint2_linear_19145_190570" x1="99.475" y1="64" x2="100.06" y2="134.92" gradientUnits="userSpaceOnUse">
<stop stop-color="#020202" stop-opacity="0.35"/>
<stop offset="0.15823" stop-color="#020202" stop-opacity="0.15"/>
<stop offset="0.28193" stop-color="white" stop-opacity="0.12"/>
<stop offset="0.50291" stop-color="white" stop-opacity="0.2"/>
<stop offset="0.72128" stop-color="white" stop-opacity="0.12"/>
<stop offset="0.8423" stop-color="#020202" stop-opacity="0.15"/>
<stop offset="0.99341" stop-color="#020202" stop-opacity="0.35"/>
</linearGradient>
<linearGradient id="paint3_linear_19145_190570" x1="110" y1="100" x2="89" y2="100" gradientUnits="userSpaceOnUse">
<stop offset="0.01" stop-color="#020202" stop-opacity="0.2"/>
<stop offset="0.05" stop-color="#020202" stop-opacity="0.12"/>
<stop offset="0.15343" stop-color="white" stop-opacity="0.12"/>
<stop offset="0.5" stop-color="white" stop-opacity="0.2"/>
<stop offset="0.85" stop-color="white" stop-opacity="0.12"/>
<stop offset="0.95" stop-opacity="0.12"/>
<stop offset="1" stop-opacity="0.2"/>
</linearGradient>
<linearGradient id="paint4_linear_19145_190570" x1="72.287" y1="55.78" x2="127.11" y2="57.142" gradientUnits="userSpaceOnUse">
<stop stop-color="#020202" stop-opacity="0.2"/>
<stop offset="0.090959" stop-color="#020202" stop-opacity="0.18"/>
<stop offset="0.1" stop-color="#020202" stop-opacity="0.1"/>
<stop offset="0.20513" stop-color="#020202" stop-opacity="0.08"/>
<stop offset="0.21555" stop-color="#020202" stop-opacity="0.05"/>
<stop offset="0.36962" stop-color="#020202" stop-opacity="0.02"/>
<stop offset="0.37768" stop-color="white" stop-opacity="0.01"/>
<stop offset="0.62413" stop-color="white" stop-opacity="0.01"/>
<stop offset="0.6313" stop-color="#020202" stop-opacity="0.02"/>
<stop offset="0.77601" stop-color="#020202" stop-opacity="0.05"/>
<stop offset="0.7898" stop-color="#020202" stop-opacity="0.08"/>
<stop offset="0.9" stop-color="#020202" stop-opacity="0.1"/>
<stop offset="0.90846" stop-color="#020202" stop-opacity="0.18"/>
<stop offset="1" stop-color="#020202" stop-opacity="0.2"/>
</linearGradient>
<clipPath id="clip0_19145_190570">
<rect width="200" height="149" fill="white"/>
</clipPath>
</defs>
</svg>
